svgs/regular/chart-simple.svg

<svg xmlns="http://www.w3.org/2000/svg" viewBox="0 0 448 512"><!--! Font Awesome Pro 6.6.0 by @fontawesome - https://fontawesome.com License - https://fontawesome.com/license (Commercial License) Copyright 2024 Fonticons, Inc. --><path d="M240 80l0 352-32 0 0-352 32 0zM208 32c-26.5 0-48 21.5-48 48l0 352c0 26.5 21.5 48 48 48l32 0c26.5 0 48-21.5 48-48l0-352c0-26.5-21.5-48-48-48l-32 0zM80 272l0 160-32 0 0-160 32 0zM48 224c-26.5 0-48 21.5-48 48L0 432c0 26.5 21.5 48 48 48l32 0c26.5 0 48-21.5 48-48l0-160c0-26.5-21.5-48-48-48l-32 0zm320-80l32 0 0 288-32 0 0-288zm-48 0l0 288c0 26.5 21.5 48 48 48l32 0c26.5 0 48-21.5 48-48l0-288c0-26.5-21.5-48-48-48l-32 0c-26.5 0-48 21.5-48 48z"/></svg>

<svg xmlns="http://www.w3.org/2000/svg" viewBox="0 0 448 512"><!--! Font Awesome Pro 6.5.2 by @fontawesome - https://fontawesome.com License - https://fontawesome.com/license (Commercial License) Copyright 2024 Fonticons, Inc. --><path d="M240 80V432H208V80h32zM208 32c-26.5 0-48 21.5-48 48V432c0 26.5 21.5 48 48 48h32c26.5 0 48-21.5 48-48V80c0-26.5-21.5-48-48-48H208zM80 272V432H48V272H80zM48 224c-26.5 0-48 21.5-48 48V432c0 26.5 21.5 48 48 48H80c26.5 0 48-21.5 48-48V272c0-26.5-21.5-48-48-48H48zm320-80h32V432H368V144zm-48 0V432c0 26.5 21.5 48 48 48h32c26.5 0 48-21.5 48-48V144c0-26.5-21.5-48-48-48H368c-26.5 0-48 21.5-48 48z"/></svg>
